file-refresh.svg

<svg fill="currentColor" viewBox="0 0 24 24"><path d="M18 14.5c1.11 0 2.11.45 2.83 1.17L22 14.5v4h-4l1.77-1.77A2.5 2.5 0 1 0 20 20h1.71A3.99 3.99 0 0 1 18 22.5c-2.21 0-4-1.79-4-4s1.79-4 4-4M13 9h5.5L13 3.5zM6 2h8l6 6v4.17c-.5-.11-1-.17-1.5-.17a6.5 6.5 0 0 0-6.5 6.5c0 1.29.37 2.5 1 3.5H6c-1.12 0-2-.9-2-2V4c0-1.11.89-2 2-2"/></svg>

<svg  viewBox="0 0 24 24" fill="currentColor"><path  d="M18 14.5C19.11 14.5 20.11 14.95 20.83 15.67L22 14.5V18.5H18L19.77 16.73C19.32 16.28 18.69 16 18 16C16.62 16 15.5 17.12 15.5 18.5C15.5 19.88 16.62 21 18 21C18.82 21 19.54 20.61 20 20H21.71C21.12 21.47 19.68 22.5 18 22.5C15.79 22.5 14 20.71 14 18.5C14 16.29 15.79 14.5 18 14.5M13 9H18.5L13 3.5V9M6 2H14L20 8V12.17C19.5 12.06 19 12 18.5 12C14.91 12 12 14.91 12 18.5C12 19.79 12.37 21 13 22H6C4.88 22 4 21.1 4 20L4 4C4 2.89 4.89 2 6 2Z"/></svg>
